packages/foundations/assets/icons/functional/images/transportation/taxi_28_inverted.svg

<svg width="28" height="28" viewBox="0 0 28 28" fill="none" xmlns="http://www.w3.org/2000/svg">
<g clip-path="url(#clip0_2214_6768)">
<path fill-rule="evenodd" clip-rule="evenodd" d="M19.6405 5.75314C20.7327 5.75314 21.6912 6.46274 22.0175 7.49278L23.3048 12.6218H25.3969C25.8454 12.6218 26.1905 12.9334 26.2375 13.3653L26.243 14.3421C26.243 14.7906 25.9163 15.2468 25.3969 15.2458L24.3549 15.2464C24.3854 15.5226 24.3666 16.0338 24.2987 16.7802L23.9989 19.8929C23.9018 20.8973 23.4149 21.6336 22.5824 21.9615L22.5818 23.7502C22.5818 24.1402 22.5824 24.8719 21.4601 24.8719H20.5535C19.4312 24.8719 19.4318 24.1402 19.4318 23.7502L19.4312 22.3116C17.6235 22.472 15.8154 22.5523 14.0068 22.5523C12.1983 22.5523 10.3897 22.472 8.58121 22.3116L8.58182 23.7502C8.58182 24.1402 8.58182 24.8719 7.46012 24.8719H6.55352C5.43182 24.8719 5.43182 24.1402 5.43182 23.7502L5.43091 21.9891C4.64648 21.704 4.15094 21.0136 4.01203 20.072L3.69829 16.8672C3.62315 16.039 3.60076 15.4985 3.63113 15.2458L2.6032 15.2468C2.11933 15.2468 1.75708 14.8251 1.75708 14.3421V13.4671C1.75708 12.9832 2.11933 12.6218 2.6032 12.6218H4.70845L5.95388 7.64207C6.2188 6.58239 7.18861 5.75314 8.37318 5.75314H19.6405ZM11.2798 17.0028C10.8446 17.0533 10.5068 17.4232 10.5068 17.8719C10.5068 18.3206 10.8446 18.6905 11.2798 18.741H16.7339C17.169 18.6905 17.5068 18.3206 17.5068 17.8719C17.5068 17.4232 17.169 17.0533 16.7339 17.0028H11.2798ZM6.02977 16.1277C5.5946 16.1782 5.25682 16.5481 5.25682 16.9968C5.25682 17.4455 5.5946 17.8154 6.02977 17.8659H7.98386C8.41903 17.8154 8.75682 17.4455 8.75682 16.9968C8.75682 16.5481 8.41903 16.1782 7.98386 16.1277H6.02977ZM20.0298 16.1277C19.5946 16.1782 19.2568 16.5481 19.2568 16.9968C19.2568 17.4455 19.5946 17.8154 20.0298 17.8659H21.9839C22.419 17.8154 22.7568 17.4455 22.7568 16.9968C22.7568 16.5481 22.419 16.1782 21.9839 16.1277H20.0298ZM8.37318 7.24064C7.94696 7.24064 7.57123 7.5084 7.42787 7.90192L6.24146 12.6218H21.771L20.6167 8.00284C20.5133 7.58935 20.1318 7.24064 19.6405 7.24064H8.37318ZM16.6182 3.12805C17.0289 3.12805 17.3619 3.46104 17.3619 3.8718C17.3619 4.25097 17.0467 4.61555 16.6318 4.61555H11.3682C10.9574 4.61555 10.6244 4.28256 10.6244 3.8718C10.6244 3.49264 10.9142 3.12805 11.3818 3.12805H16.6182Z" fill="#1A1C1F"/>
</g>
<defs>
<clipPath id="clip0_2214_6768">
<rect width="28" height="28" fill="white"/>
</clipPath>
</defs>
</svg>

<svg xmlns="http://www.w3.org/2000/svg" width="28" height="28" fill="none"><g clip-path="url(#a)"><path fill="#1A1C1F" fill-rule="evenodd" d="M19.64 5.753c1.093 0 2.051.71 2.377 1.74l1.288 5.129h2.092c.448 0 .794.311.84.743l.006.977c0 .449-.327.905-.846.904h-1.042q.046.415-.056 1.534l-.3 3.113c-.097 1.004-.584 1.74-1.417 2.069v1.788c0 .39 0 1.122-1.122 1.122h-.907c-1.122 0-1.121-.732-1.121-1.122v-1.438a61.3 61.3 0 0 1-10.85 0v1.438c0 .39 0 1.122-1.122 1.122h-.906c-1.122 0-1.122-.732-1.122-1.122l-.001-1.76c-.785-.286-1.28-.976-1.419-1.918l-.314-3.205q-.112-1.242-.067-1.621H2.603c-.484 0-.846-.42-.846-.904v-.875c0-.484.362-.845.846-.845h2.105l1.246-4.98a2.5 2.5 0 0 1 2.42-1.889zm-8.36 11.25a.875.875 0 0 0 0 1.738h5.454a.875.875 0 0 0 0-1.738zm-5.25-.875a.875.875 0 0 0 0 1.738h1.954a.875.875 0 0 0 0-1.738zm14 0a.875.875 0 0 0 0 1.738h1.954a.875.875 0 0 0 0-1.738zM8.373 7.24c-.426 0-.802.267-.945.66l-1.187 4.72h15.53l-1.154-4.618a1.01 1.01 0 0 0-.977-.762zm8.245-4.113a.744.744 0 0 1 .014 1.488h-5.264a.744.744 0 1 1 .014-1.488z" clip-rule="evenodd"/></g><defs><clipPath id="a"><path fill="#fff" d="M0 0h28v28H0z"/></clipPath></defs></svg>
